X: 122060
T: Lily Fair
C: BB 1/06
N: 223
L: 1/8
M: 6/8
R: jig
Q: 1/4 = 170
K: Am
D|"Am"E2A cBA | "Em"Bge "G"dBG |\
"Am"E2A cde | "G"dBA G2 E|
"Am"E2A AGA | "C"cBc "Dm"def |\
"Am"ecA "G"dBG | "Em" EGB "Am"A2 :|
d|"Am"eaa "C"egg | "Dm"def "Am"ecA |\
"G"Bcd "Am"cBA | "G"Bcd "Em7"e2 d |
"Am"eaa "C"egg | "Dm"def "Am"ecA |\
"G"dcB "Am"cBA | "Em"GEG "Am"A2 :|
